X:1
T:[ID 10-118]
T:[ID 10-118]
T:Bezeichnung standardisiert: Wer niemals einen Rausch gehabt; Angeloise \"Ahnlich in anderer Quelle: "Wer niemals einen Rausch gehabt" - Wenzel M\"uller, 1794 (Anm. S. Wascher);
T:Urheber unbekannt Datum in der hier transkribierten schriftlichen Quelle: 1799
C:Urheber unbekannt
C:Datum in der hier transkribierten schriftlichen Quelle: 1799
L:1/8
M:2/4
K:D
V:1 treble 
V:1
 a | a/^g/a/b/ a/g/a/b/ | afdf | egce | d/c/d/e/ dd | a/^g/a/b/ a/g/a/b/ | afdf | egce | d2 z :: %9
 d | ee ff | gg ff | ee ff | gg f2 | a/^g/a/b/ a/g/a/b/ | afdf | egce | d2 z :| %18

